dist/img/icons/socials/mail.svg

<svg width="36" height="29" viewBox="0 0 36 29" fill="none" xmlns="http://www.w3.org/2000/svg">
<path d="M32.4 0H3.6C1.62 0 0 1.63125 0 3.625V25.375C0 27.3688 1.62 29 3.6 29H32.4C34.38 29 36 27.3688 36 25.375V3.625C36 1.63125 34.38 0 32.4 0ZM31.68 7.70312L19.908 15.1163C18.738 15.8594 17.262 15.8594 16.092 15.1163L4.32 7.70312C4.13951 7.6011 3.98145 7.46326 3.8554 7.29795C3.72934 7.13263 3.63791 6.94329 3.58664 6.74136C3.53536 6.53943 3.5253 6.32913 3.55708 6.12318C3.58886 5.91723 3.66181 5.71991 3.77151 5.54317C3.88121 5.36643 4.02538 5.21394 4.19531 5.09493C4.36523 4.97592 4.55737 4.89286 4.76009 4.85079C4.96282 4.80872 5.17191 4.8085 5.37472 4.85016C5.57753 4.89181 5.76983 4.97447 5.94 5.09312L18 12.6875L30.06 5.09312C30.2302 4.97447 30.4225 4.89181 30.6253 4.85016C30.8281 4.8085 31.0372 4.80872 31.2399 4.85079C31.4426 4.89286 31.6348 4.97592 31.8047 5.09493C31.9746 5.21394 32.1188 5.36643 32.2285 5.54317C32.3382 5.71991 32.4111 5.91723 32.4429 6.12318C32.4747 6.32913 32.4646 6.53943 32.4134 6.74136C32.3621 6.94329 32.2707 7.13263 32.1446 7.29795C32.0185 7.46326 31.8605 7.6011 31.68 7.70312Z" fill="#C9CDCA"/>
</svg>

<svg width="36" height="29" viewBox="0 0 36 29" fill="none" xmlns="http://www.w3.org/2000/svg"><path d="M32.4 0H3.6C1.62 0 0 1.631 0 3.625v21.75C0 27.369 1.62 29 3.6 29h28.8c1.98 0 3.6-1.631 3.6-3.625V3.625C36 1.631 34.38 0 32.4 0zm-.72 7.703l-11.772 7.413a3.545 3.545 0 01-3.816 0L4.32 7.703a1.533 1.533 0 01-.733-.962 1.55 1.55 0 01.608-1.646 1.524 1.524 0 011.745-.002L18 12.688l12.06-7.595a1.525 1.525 0 012.383 1.03 1.552 1.552 0 01-.298 1.175 1.534 1.534 0 01-.465.405z" fill="#C9CDCA"/></svg>
